public/logos/MB.svg

<?xml version="1.0" encoding="UTF-8"?>
<svg xmlns="http://www.w3.org/2000/svg" xmlns:xlink="http://www.w3.org/1999/xlink" width="176pt" height="39.18pt" viewBox="0 0 176 39.18" version="1.1">
<defs>
<clipPath id="clip1">
  <path d="M 140 0 L 176 0 L 176 39.179688 L 140 39.179688 Z M 140 0 "/>
</clipPath>
</defs>
<g id="surface1">
<path style=" stroke:none;fill-rule:nonzero;fill:rgb(19.061279%,20.429993%,57.331848%);fill-opacity:1;" d="M 62.699219 1.785156 L 74.410156 1.785156 L 81.476562 15.335938 L 91.550781 1.714844 L 101.976562 1.792969 L 102.183594 38.101562 L 86.734375 38.238281 L 86.542969 25.164062 C 86.542969 25.164062 79.859375 32.578125 76.511719 36.289062 C 74.816406 34.59375 69.242188 27.203125 67.589844 25.492188 C 67.589844 29.6875 67.589844 38.074219 67.589844 38.074219 L 62.773438 38.117188 L 62.699219 1.785156 "/>
<path style=" stroke:none;fill-rule:nonzero;fill:rgb(19.061279%,20.429993%,57.331848%);fill-opacity:1;" d="M 110.777344 38.183594 L 106.695312 38.09375 C 106.695312 38.09375 106.859375 2.335938 106.886719 1.824219 C 107.355469 1.789062 120.953125 1.761719 120.953125 1.761719 L 131.4375 16.179688 L 131.527344 1.957031 L 137.21875 1.925781 L 137.125 38.371094 L 121.625 38.347656 L 110.734375 24.621094 L 110.777344 38.183594 "/>
<g clip-path="url(#clip1)" clip-rule="nonzero">
<path style=" stroke:none;fill-rule:nonzero;fill:rgb(19.061279%,20.429993%,57.331848%);fill-opacity:1;" d="M 161.71875 16.625 C 166.5 16.625 171.113281 16.625 175.828125 16.625 C 175.878906 16.9375 175.976562 17.269531 175.976562 17.597656 C 175.988281 22.429688 175.972656 27.261719 176 32.09375 C 176.003906 32.820312 175.761719 33.332031 175.234375 33.792969 C 172.738281 35.984375 169.871094 37.519531 166.65625 38.285156 C 164.675781 38.757812 162.621094 38.949219 160.585938 39.167969 C 159.859375 39.246094 159.097656 38.945312 158.355469 38.972656 C 155.539062 39.082031 152.875 38.414062 150.3125 37.359375 C 148.632812 36.667969 147.234375 35.519531 145.933594 34.238281 C 142.898438 31.25 141.523438 27.535156 140.84375 23.425781 C 140.5 21.363281 140.414062 19.292969 140.65625 17.273438 C 141.011719 14.273438 142.058594 11.441406 143.640625 8.832031 C 145.332031 6.050781 147.671875 3.917969 150.523438 2.460938 C 152.238281 1.582031 154.164062 1.058594 156.042969 0.566406 C 157.433594 0.203125 158.90625 0 160.34375 0.00390625 C 162.183594 0.0078125 164.042969 0.171875 165.859375 0.484375 C 167.632812 0.789062 168.984375 1.359375 168.984375 1.359375 C 168.984375 1.359375 168.9375 4.902344 169.019531 5.414062 C 168.390625 5.902344 167.78125 5.691406 167.199219 5.640625 C 166.703125 5.597656 166.203125 5.527344 165.726562 5.390625 C 164.15625 4.9375 162.644531 5.332031 161.171875 5.753906 C 158.902344 6.402344 157.339844 7.882812 156.574219 10.132812 C 156.402344 10.640625 156.324219 11.207031 156.320312 11.75 C 156.304688 18.546875 156.300781 25.339844 156.316406 32.136719 C 156.320312 33.792969 157.714844 34.839844 159.351562 34.542969 C 161.160156 34.214844 161.707031 33.300781 161.714844 31.464844 C 161.734375 27.085938 161.722656 22.707031 161.71875 18.328125 C 161.71875 17.785156 161.71875 17.246094 161.71875 16.625 "/>
</g>
<path style=" stroke:none;fill-rule:nonzero;fill:rgb(19.061279%,20.429993%,57.331848%);fill-opacity:1;" d="M 28.796875 0.00390625 C 29.335938 1.589844 29.933594 2.941406 30.925781 4.0625 C 31.808594 5.0625 32.769531 5.996094 33.683594 6.96875 C 35.113281 8.480469 36.621094 9.933594 37.9375 11.539062 C 40.089844 14.164062 40.105469 18.03125 38.121094 20.996094 C 37.21875 22.339844 36.222656 23.617188 35.3125 24.957031 C 34.902344 25.5625 34.523438 26.214844 34.277344 26.898438 C 33.914062 27.90625 34.253906 28.898438 35.160156 29.445312 C 36.988281 30.546875 38.894531 31.390625 41.097656 31.554688 C 42.65625 31.667969 44.101562 31.519531 45.523438 30.910156 C 47.632812 30 49.777344 30.292969 51.914062 30.78125 C 52.496094 30.914062 53.066406 31.109375 53.617188 31.335938 C 54.078125 31.527344 54.507812 31.800781 55.089844 32.113281 C 54.78125 32.363281 54.613281 32.566406 54.398438 32.664062 C 52.507812 33.542969 50.617188 34.367188 48.457031 34.34375 C 47.449219 34.332031 46.539062 34.0625 45.636719 33.714844 C 42.933594 32.667969 40.390625 33 37.976562 34.546875 C 37.78125 34.671875 37.582031 34.792969 37.40625 34.9375 C 35.949219 36.148438 34.261719 36.324219 32.457031 36.097656 C 31.304688 35.953125 30.203125 35.675781 29.117188 35.257812 C 28.703125 35.097656 28.207031 35.128906 27.75 35.128906 C 21.71875 35.117188 15.691406 35.15625 9.664062 35.082031 C 7.503906 35.058594 5.339844 34.816406 3.1875 34.570312 C 2.429688 34.484375 1.703125 34.105469 0.972656 33.835938 C 0.761719 33.757812 0.53125 33.625 0.410156 33.445312 C 0.191406 33.121094 -0.195312 32.792969 0.117188 32.335938 C 0.417969 31.894531 0.859375 31.988281 1.238281 32.171875 C 3.171875 33.117188 5.230469 33.195312 7.332031 33.210938 C 9.5 33.230469 11.664062 33.402344 14.03125 33.515625 C 13.875 33.046875 13.769531 32.742188 13.660156 32.417969 C 18.285156 33.144531 20.390625 31.785156 22.726562 28.933594 C 20.492188 29.648438 18.40625 30.183594 16.144531 29.375 C 16.558594 29.089844 16.9375 28.824219 17.40625 28.5 C 16.253906 28.433594 15.152344 28.675781 14.105469 27.894531 C 14.425781 27.648438 14.722656 27.421875 15.027344 27.191406 C 14.984375 27.160156 14.929688 27.089844 14.871094 27.089844 C 13.914062 27.039062 12.941406 27.242188 11.941406 26.902344 C 12.21875 26.144531 13.09375 26.125 13.542969 25.359375 C 11.917969 25.867188 10.433594 25.65625 8.964844 25.277344 C 8.726562 25.214844 8.519531 25.027344 8.054688 24.757812 C 8.890625 24.496094 9.484375 24.308594 10.214844 24.078125 C 8.300781 23.949219 6.445312 23.980469 5.246094 22.050781 C 6.199219 21.972656 7.050781 21.859375 7.902344 21.84375 C 9.683594 21.8125 11.332031 21.179688 13.035156 20.773438 C 13.835938 20.585938 14.660156 20.460938 15.476562 20.335938 C 17.285156 20.0625 18.867188 20.675781 20.292969 21.703125 C 21.414062 22.511719 22.457031 23.429688 23.519531 24.320312 C 23.902344 24.640625 24.246094 25.011719 24.605469 25.363281 C 25.449219 25.078125 25.269531 24.453125 25.179688 23.949219 C 25.011719 23 24.738281 22.066406 24.546875 21.121094 C 24.46875 20.734375 24.488281 20.328125 24.449219 19.710938 C 25.488281 20.40625 25.65625 21.625 26.902344 22.050781 C 25.730469 20.617188 25.085938 19.164062 24.984375 17.300781 C 25.402344 17.601562 25.675781 17.800781 26.011719 18.042969 C 25.992188 17.875 26.007812 17.742188 25.957031 17.636719 C 25.472656 16.640625 25.136719 15.605469 24.953125 14.253906 C 25.414062 14.621094 25.695312 14.878906 26.007812 15.085938 C 26.304688 15.289062 26.636719 15.449219 27.042969 15.570312 C 25.585938 13.839844 24.652344 11.945312 24.726562 9.453125 C 25.46875 10.113281 26.0625 10.644531 26.859375 11.351562 C 26.386719 9.402344 25.496094 7.8125 25.914062 5.851562 C 26.519531 6.4375 27.039062 6.945312 27.730469 7.621094 C 27.488281 6.78125 27.324219 6.148438 27.125 5.523438 C 26.910156 4.855469 26.84375 4.195312 27.042969 3.300781 C 27.585938 3.921875 28.019531 4.414062 28.632812 5.117188 C 28.257812 3.300781 27.730469 1.726562 28.796875 0.00390625 "/>
</g>
</svg>

<svg xmlns="http://www.w3.org/2000/svg" width="176pt" height="52.24" viewBox="0 0 176 39.18"><defs><clipPath id="a"><path d="M140 0h36v39.18h-36Zm0 0"/></clipPath></defs><path d="M62.7 1.785h11.71l7.067 13.55L91.55 1.716l10.426.078.207 36.309-15.45.136-.191-13.074L76.512 36.29c-1.696-1.695-7.27-9.086-8.922-10.797v12.582l-4.817.043zM110.777 38.184l-4.082-.09s.164-35.758.192-36.27c.468-.035 14.066-.062 14.066-.062l10.484 14.418.09-14.223 5.692-.031-.094 36.445-15.5-.023-10.89-13.727z" style="stroke:none;fill-rule:nonzero;fill:#313492;fill-opacity:1"/><g clip-path="url(#a)"><path d="M161.719 16.625h14.11c.05.313.148.645.148.973.011 4.832-.004 9.664.023 14.496.004.726-.238 1.238-.766 1.699-2.496 2.191-5.363 3.727-8.578 4.492-1.98.473-4.035.664-6.07.883-.727.078-1.488-.223-2.23-.195-2.817.109-5.481-.559-8.043-1.614-1.68-.691-3.079-1.84-4.38-3.12-3.035-2.989-4.41-6.704-5.09-10.813-.343-2.063-.429-4.133-.187-6.153.356-3 1.403-5.832 2.985-8.441 1.691-2.781 4.03-4.914 6.882-6.371 1.715-.879 3.641-1.402 5.52-1.895a17 17 0 0 1 4.3-.562c1.84.004 3.7.168 5.516.48 1.774.305 3.125.875 3.125.875s-.047 3.543.036 4.055c-.63.488-1.239.277-1.82.227a8 8 0 0 1-1.473-.25c-1.57-.453-3.082-.059-4.555.363-2.27.648-3.832 2.129-4.598 4.379a5.2 5.2 0 0 0-.254 1.617c-.015 6.797-.02 13.59-.004 20.387.004 1.656 1.399 2.703 3.036 2.406 1.808-.328 2.355-1.242 2.363-3.078.02-4.38.008-8.758.004-13.137z" style="stroke:none;fill-rule:nonzero;fill:#313492;fill-opacity:1"/></g><path d="M28.797.004c.539 1.586 1.137 2.937 2.129 4.059.883 1 1.844 1.933 2.758 2.906 1.43 1.511 2.937 2.965 4.254 4.57 2.152 2.625 2.167 6.492.183 9.457-.902 1.344-1.898 2.621-2.809 3.961-.41.605-.789 1.258-1.035 1.941-.363 1.008-.023 2 .883 2.547 1.828 1.102 3.735 1.946 5.938 2.11 1.558.113 3.004-.035 4.425-.645 2.11-.91 4.254-.617 6.391-.129a11 11 0 0 1 1.703.555c.461.191.89.465 1.473.777-.309.25-.477.453-.692.551-1.89.879-3.78 1.703-5.941 1.68-1.008-.012-1.918-.282-2.82-.63-2.703-1.046-5.246-.714-7.66.833-.196.125-.395.246-.57.39-1.458 1.211-3.145 1.387-4.95 1.16a14 14 0 0 1-3.34-.84c-.414-.16-.91-.128-1.367-.128-6.031-.012-12.059.027-18.086-.047-2.16-.023-4.324-.266-6.476-.512-.758-.086-1.485-.465-2.215-.734-.211-.078-.442-.211-.563-.39-.219-.325-.605-.653-.293-1.11.301-.441.742-.348 1.121-.164 1.934.945 3.992 1.023 6.094 1.039 2.168.02 4.332.191 6.7.305-.157-.47-.262-.774-.372-1.098 4.625.727 6.73-.633 9.067-3.484-2.235.714-4.32 1.25-6.582.441.414-.285.793-.55 1.261-.875-1.152-.066-2.254.176-3.3-.605.32-.247.617-.473.921-.704-.043-.03-.097-.101-.156-.101-.957-.05-1.93.152-2.93-.188.278-.757 1.153-.777 1.602-1.543-1.625.508-3.11.297-4.578-.082-.238-.062-.445-.25-.91-.52.836-.26 1.43-.448 2.16-.679-1.914-.129-3.77-.098-4.969-2.027.953-.078 1.805-.192 2.656-.207 1.782-.032 3.43-.664 5.133-1.07.8-.188 1.625-.313 2.442-.438 1.808-.273 3.39.34 4.816 1.367 1.121.809 2.164 1.727 3.227 2.617.382.32.726.692 1.085 1.043.844-.285.665-.91.575-1.414-.168-.949-.442-1.883-.633-2.828-.078-.387-.059-.793-.098-1.41 1.04.695 1.207 1.914 2.453 2.34-1.172-1.434-1.816-2.887-1.918-4.75.418.3.692.5 1.028.742-.02-.168-.004-.3-.055-.406-.484-.996-.82-2.032-1.004-3.383.461.367.742.625 1.055.832.297.203.629.363 1.035.484-1.457-1.73-2.39-3.625-2.316-6.117.742.66 1.335 1.192 2.132 1.899-.472-1.95-1.363-3.54-.945-5.5.606.585 1.125 1.093 1.816 1.77-.242-.84-.406-1.474-.605-2.099-.215-.668-.281-1.328-.082-2.222.543.62.977 1.113 1.59 1.816-.375-1.816-.903-3.39.164-5.113" style="stroke:none;fill-rule:nonzero;fill:#313492;fill-opacity:1"/></svg>
